**harm	**harte	**timestamp	**phrase	**leadinstrument	**kern
*M4/4	*M4/4	*	*	*	*
*d:	*d:	*	*	*	*d:
1r;	N	0	.	r	1r;
=1	=1	=1	=1	=1	=1
*>A_intro	*>A_intro	*>A_intro	*>A_intro	*>A_intro	*>A_intro
1I	D:maj	0.279	newline	synthesizer	1D 1f# 1a
=2	=2	=2	=2	=2	=2
1ivc	G:5/5	2.416	.	synthesizer	1g 1b- 1D
=3	=3	=3	=3	=3	=3
2-IIIg	F:5/6	4.554	.	synthesizer	2F- 2a- 2cc-
2-VIIe	C:(3)/2	5.623	.	synthesizer	2C 2e 2g
=4	=4	=4	=4	=4	=4
1ic	D:5/5	6.692	.	synthesizer	1d 1f 1A
=5	=5	=5	=5	=5	=5
1I	D:maj	8.83	newline	synthesizer	1D 1f# 1a
=6	=6	=6	=6	=6	=6
1ivc	G:5/5	10.911	.	synthesizer	1g 1b- 1D
=7	=7	=7	=7	=7	=7
2-IIIg	F:5/6	12.993	.	synthesizer	2F- 2a- 2cc-
2-VIIe	C:(3)/2	14.034	.	synthesizer	2C 2e 2g
=8	=8	=8	=8	=8	=8
1i	D:5	15.075	.	synthesizer	1D 1f 1a
=9	=9	=9	=9	=9	=9
*>A_verse	*>A_verse	*>A_verse	*>A_verse	*>A_verse	*>A_verse
1I	D:maj	17.156	newline	voice	1D 1f# 1a
=10	=10	=10	=10	=10	=10
1ivc	G:5/5	19.228	.	voice	1g 1b- 1D
=11	=11	=11	=11	=11	=11
2-IIIg	F:5/6	21.3	.	voice	2F- 2a- 2cc-
2-VIIe	C:(3)/2	22.335	.	voice	2C 2e 2g
=12	=12	=12	=12	=12	=12
1i	D:5	23.371	.	voice	1D 1f 1a
=13	=13	=13	=13	=13	=13
1I	D:maj	25.443	newline	voice	1D 1f# 1a
=14	=14	=14	=14	=14	=14
1ivc	G:5/5	27.523	.	voice	1g 1b- 1D
=15	=15	=15	=15	=15	=15
2-IIIg	F:5/6	29.603	.	voice	2F- 2a- 2cc-
2-VIIe	C:(3)/2	30.643	.	voice	2C 2e 2g
=16	=16	=16	=16	=16	=16
1i	D:5	31.683	.	voice	1D 1f 1a
=17	=17	=17	=17	=17	=17
1-VII	C:maj	33.764	newline	voice	1C 1e 1g
=18	=18	=18	=18	=18	=18
1i	D:min	35.828	.	voice	1D 1f 1a
=19	=19	=19	=19	=19	=19
1-VII	C:maj	37.893	.	voice	1C 1e 1g
=20	=20	=20	=20	=20	=20
1i	D:min	39.957	.	voice	1D 1f 1a
=21	=21	=21	=21	=21	=21
1-VII	C:maj	42.022	newline	voice	1C 1e 1g
=22	=22	=22	=22	=22	=22
2.i	D:min	44.084	.	voice	2D 2f 2a
4-VII	C:maj	45.631	.	voice	4C 4e 4g
=23	=23	=23	=23	=23	=23
1-VI	B-:maj	46.146	.	voice	1B-- 1dd- 1ff-
=24	=24	=24	=24	=24	=24
1V	A:maj	48.209	.	voice	1A 1cc# 1ee
=25	=25	=25	=25	=25	=25
*>B_chorus	*>B_chorus	*>B_chorus	*>B_chorus	*>B_chorus	*>B_chorus
1i	D:min	50.271	newline	voice	1D 1f 1a
=26	=26	=26	=26	=26	=26
1i	D:min	52.335	.	voice	1D 1f 1a
=27	=27	=27	=27	=27	=27
1i	D:min	54.398	.	voice	1D 1f 1a
=28	=28	=28	=28	=28	=28
2-VI	B-:maj	56.462	.	voice	2B-- 2dd- 2ff-
2-VII	C:maj	57.494	.	voice	2C 2e 2g
=29	=29	=29	=29	=29	=29
1i	D:min	58.525	newline	voice	1D 1f 1a
=30	=30	=30	=30	=30	=30
1i	D:min	60.579	.	voice	1D 1f 1a
=31	=31	=31	=31	=31	=31
1i	D:min	62.632	.	voice	1D 1f 1a
=32	=32	=32	=32	=32	=32
2-VI	B-:maj	64.685	.	voice	2B-- 2dd- 2ff-
2-VII	C:maj	65.711	.	voice	2C 2e 2g
=33	=33	=33	=33	=33	=33
*>A_trans	*>A_trans	*>A_trans	*>A_trans	*>A_trans	*>A_trans
1I	D:maj	66.738	newline	guitar	1D 1f# 1a
=34	=34	=34	=34	=34	=34
1ivc	G:5/5	68.803	.	guitar	1g 1b- 1D
=35	=35	=35	=35	=35	=35
2-IIIg	F:5/6	70.868	.	guitar	2F- 2a- 2cc-
2-VIIe	C:(3)/2	71.9	.	guitar	2C 2e 2g
=36	=36	=36	=36	=36	=36
1i	D:5	72.933	.	guitar	1D 1f 1a
=37	=37	=37	=37	=37	=37
*>A_verse	*>A_verse	*>A_verse	*>A_verse	*>A_verse	*>A_verse
1I	D:maj	74.998	newline	voice	1D 1f# 1a
=38	=38	=38	=38	=38	=38
1ivc	G:5/5	77.051	.	voice	1g 1b- 1D
=39	=39	=39	=39	=39	=39
2-IIIg	F:5/6	79.104	.	voice	2F- 2a- 2cc-
2-VIIe	C:(3)/2	80.13	.	voice	2C 2e 2g
=40	=40	=40	=40	=40	=40
1i	D:5	81.157	.	voice	1D 1f 1a
=41	=41	=41	=41	=41	=41
1I	D:maj	83.21	newline	voice	1D 1f# 1a
=42	=42	=42	=42	=42	=42
1ivc	G:5/5	85.259	.	voice	1g 1b- 1D
=43	=43	=43	=43	=43	=43
2-IIIg	F:5/6	87.309	.	voice	2F- 2a- 2cc-
2-VIIe	C:(3)/2	88.334	.	voice	2C 2e 2g
=44	=44	=44	=44	=44	=44
1i	D:5	89.359	.	voice	1D 1f 1a
=45	=45	=45	=45	=45	=45
1-VII	C:maj	91.408	newline	voice	1C 1e 1g
=46	=46	=46	=46	=46	=46
1i	D:min	93.465	.	voice	1D 1f 1a
=47	=47	=47	=47	=47	=47
1-VII	C:maj	95.522	.	voice	1C 1e 1g
=48	=48	=48	=48	=48	=48
1i	D:min	97.58	.	voice	1D 1f 1a
=49	=49	=49	=49	=49	=49
1-VII	C:maj	99.637	newline	voice	1C 1e 1g
=50	=50	=50	=50	=50	=50
2.i	D:min	101.676	.	voice	2D 2f 2a
4-VIIe	C:maj/2	103.205	.	voice	4C 4e 4g
=51	=51	=51	=51	=51	=51
1-VI	B-:maj	103.715	.	voice	1B-- 1dd- 1ff-
=52	=52	=52	=52	=52	=52
1V	A:maj	105.754	.	voice	1A 1cc# 1ee
=53	=53	=53	=53	=53	=53
*>B_chorus	*>B_chorus	*>B_chorus	*>B_chorus	*>B_chorus	*>B_chorus
1i	D:min	107.792	newline	voice	1D 1f 1a
=54	=54	=54	=54	=54	=54
1i	D:min	109.854	.	voice	1D 1f 1a
=55	=55	=55	=55	=55	=55
1i	D:min	111.915	.	voice	1D 1f 1a
=56	=56	=56	=56	=56	=56
2-VI	B-:maj	113.976	.	voice	2B-- 2dd- 2ff-
2-VII	C:maj	115.007	.	voice	2C 2e 2g
=57	=57	=57	=57	=57	=57
1i	D:min	116.038	newline	voice	1D 1f 1a
=58	=58	=58	=58	=58	=58
1i	D:min	118.061	.	voice	1D 1f 1a
=59	=59	=59	=59	=59	=59
1i	D:min	120.084	.	voice	1D 1f 1a
=60	=60	=60	=60	=60	=60
2-VI	B-:maj	122.107	.	voice	2B-- 2dd- 2ff-
2-VII	C:maj	123.118	.	voice	2C 2e 2g
=61	=61	=61	=61	=61	=61
1-VI	B-:maj	124.13	newline	guitar	1B-- 1dd- 1ff-
=62	=62	=62	=62	=62	=62
1-VII	C:maj	126.177	.	guitar	1C 1e 1g
=63	=63	=63	=63	=63	=63
1-VI	B-:maj	128.224	.	guitar	1B-- 1dd- 1ff-
=64	=64	=64	=64	=64	=64
1-VII	C:maj	130.271	.	guitar	1C 1e 1g
=65	=65	=65	=65	=65	=65
*>A_trans	*>A_trans	*>A_trans	*>A_trans	*>A_trans	*>A_trans
1I	D:maj	132.319	newline	guitar	1D 1f# 1a
=66	=66	=66	=66	=66	=66
1ivc	G:5/5	134.406	.	guitar	1g 1b- 1D
=67	=67	=67	=67	=67	=67
2-IIIg	F:5/6	136.494	.	guitar	2F- 2a- 2cc-
2-VIIe	C:(3)/2	137.538	.	guitar	2C 2e 2g
=68	=68	=68	=68	=68	=68
1i	D:5	138.582	.	guitar	1D 1f 1a
=69	=69	=69	=69	=69	=69
*>A_verse	*>A_verse	*>A_verse	*>A_verse	*>A_verse	*>A_verse
1I	D:maj	140.67	newline	voice	1D 1f# 1a
=70	=70	=70	=70	=70	=70
1ivc	G:5/5	142.745	.	voice	1g 1b- 1D
=71	=71	=71	=71	=71	=71
2-IIIg	F:5/6	144.82	.	voice	2F- 2a- 2cc-
2-VIIe	C:(3)/2	145.858	.	voice	2C 2e 2g
=72	=72	=72	=72	=72	=72
1i	D:5	146.895	.	voice	1D 1f 1a
=73	=73	=73	=73	=73	=73
1I	D:maj	148.971	newline	voice	1D 1f# 1a
=74	=74	=74	=74	=74	=74
1ivc	G:5/5	151.016	.	voice	1g 1b- 1D
=75	=75	=75	=75	=75	=75
2-IIIg	F:5/6	153.062	.	voice	2F- 2a- 2cc-
2-VIIe	C:(3)/2	154.085	.	voice	2C 2e 2g
=76	=76	=76	=76	=76	=76
1i	D:5	155.108	.	voice	1D 1f 1a
=77	=77	=77	=77	=77	=77
1-VII	C:maj	157.153	newline	voice	1C 1e 1g
=78	=78	=78	=78	=78	=78
1i	D:min	159.209	.	voice	1D 1f 1a
=79	=79	=79	=79	=79	=79
1-VII	C:maj	161.265	.	voice	1C 1e 1g
=80	=80	=80	=80	=80	=80
1i	D:min	163.32	.	voice	1D 1f 1a
=81	=81	=81	=81	=81	=81
1-VII	C:maj	165.376	newline	voice	1C 1e 1g
=82	=82	=82	=82	=82	=82
2.i	D:min	167.435	.	voice	2D 2f 2a
4-VII	C:maj	168.978	.	voice	4C 4e 4g
=83	=83	=83	=83	=83	=83
1-VI	B-:maj	169.493	.	voice	1B-- 1dd- 1ff-
=84	=84	=84	=84	=84	=84
1V	A:maj	171.551	.	voice	1A 1cc# 1ee
=85	=85	=85	=85	=85	=85
*>B_chorus	*>B_chorus	*>B_chorus	*>B_chorus	*>B_chorus	*>B_chorus
1i	D:min	173.61	newline	voice	1D 1f 1a
=86	=86	=86	=86	=86	=86
1i	D:min	175.668	.	voice	1D 1f 1a
=87	=87	=87	=87	=87	=87
1i	D:min	177.727	.	voice	1D 1f 1a
=88	=88	=88	=88	=88	=88
2-VI	B-:maj	179.785	.	voice	2B-- 2dd- 2ff-
2-VII	C:maj	180.815	.	voice	2C 2e 2g
=89	=89	=89	=89	=89	=89
1i	D:min	181.844	newline	voice	1D 1f 1a
=90	=90	=90	=90	=90	=90
1i	D:min	183.884	.	voice	1D 1f 1a
=91	=91	=91	=91	=91	=91
1i	D:min	185.924	.	voice	1D 1f 1a
=92	=92	=92	=92	=92	=92
2-VI	B-:maj	187.965	.	voice	2B-- 2dd- 2ff-
2-VII	C:maj	188.985	.	voice	2C 2e 2g
=93	=93	=93	=93	=93	=93
*>B_chorus	*>B_chorus	*>B_chorus	*>B_chorus	*>B_chorus	*>B_chorus
1i	D:min	190.005	newline	voice	1D 1f 1a
=94	=94	=94	=94	=94	=94
1i	D:min	192.046	.	voice	1D 1f 1a
=95	=95	=95	=95	=95	=95
1i	D:min	194.088	.	voice	1D 1f 1a
=96	=96	=96	=96	=96	=96
2-VI	B-:maj	196.129	.	voice	2B-- 2dd- 2ff-
2-VII	C:maj	197.15	.	voice	2C 2e 2g
=97	=97	=97	=97	=97	=97
1i	D:min	198.171	newline	voice	1D 1f 1a
=98	=98	=98	=98	=98	=98
1i	D:min	200.203	.	voice	1D 1f 1a
=99	=99	=99	=99	=99	=99
1i	D:min	202.234	.	voice	1D 1f 1a
=100	=100	=100	=100	=100	=100
2-VI	B-:maj	204.266	.	voice	2B-- 2dd- 2ff-
2-VII	C:maj	205.282	.	voice	2C 2e 2g
=101	=101	=101	=101	=101	=101
*>B_fadeout	*>B_fadeout	*>B_fadeout	*>B_fadeout	*>B_fadeout	*>B_fadeout
1i	D:min	206.298	newline	voice	1D 1f 1a
=102	=102	=102	=102	=102	=102
1i	D:min	207.735	.	voice	1D 1f 1a
=103	=103	=103	=103	=103	=103
1i	D:min	209.171	.	voice	1D 1f 1a
=104	=104	=104	=104	=104	=104
2-VI	B-:maj	210.608	.	voice	2B-- 2dd- 2ff-
2-VII	C:maj	211.326	.	voice	2C 2e 2g
1r;	N	212.045	.	r	1r;
1r;	N	215.353	.	r	1r;
*-	*-	*-	*-	*-	*-
!!!OTL: Devil Woman
!!!COC: Cliff Richard
!!!BillboardChartDate: 1976/08/07
!!!BillboardPeak: 6
!!!BillboardWeeksOnChart: 22
!!!SampleTargetRank: 42
!!!SampleActualRank: 42
!!!SampleID#: 1073
!!!RDF**harmony: **recip + pitch class of root + harmonic quality
!!!RDF**harte: Chris Harte's syntax, used by MIREX
!!!RDF**phrase: newline = linebreak in original McGill transcription
!!!RDF**timestamp: McGill audio timestamp in seconds
!!!RDF**leadinstrument: original McGill primary instrumentation annotation
!!!RDT: 2017/01/12/
!!!ENC: Nathaniel Condit-Schultz
!!!EST: Awating manual error checking and editing.
